public/assets/linkedin.svg

<svg width="16" height="16" viewBox="0 0 16 16" fill="none" xmlns="http://www.w3.org/2000/svg">
<path d="M13.631 13.635H11.262V9.922C11.262 9.037 11.244 7.897 10.027 7.897C8.792 7.897 8.603 8.861 8.603 9.857V13.635H6.234V6H8.51V7.04H8.54C8.859 6.44 9.632 5.807 10.787 5.807C13.188 5.807 13.632 7.387 13.632 9.444V13.634L13.631 13.635ZM3.558 4.955C3.19333 4.955 2.84359 4.81013 2.58573 4.55227C2.32787 4.29441 2.183 3.94467 2.183 3.58C2.1832 3.30785 2.26409 3.04188 2.41545 2.8157C2.56681 2.58953 2.78184 2.41332 3.03335 2.30936C3.28486 2.2054 3.56155 2.17835 3.82842 2.23164C4.0953 2.28492 4.34039 2.41615 4.53269 2.60873C4.72498 2.80131 4.85586 3.04658 4.90875 3.31354C4.96165 3.58049 4.9342 3.85714 4.82987 4.1085C4.72555 4.35985 4.54902 4.57463 4.32263 4.72566C4.09624 4.87669 3.83015 4.9572 3.558 4.957V4.955ZM4.746 13.635H2.37V6H4.746V13.635ZM14.816 0H1.182C0.528 0 0 0.516 0 1.153V14.847C0 15.485 0.528 16 1.18 16H14.815C15.467 16 16 15.485 16 14.847V1.153C16 0.516 15.467 0 14.815 0H14.817H14.816Z" fill="#272C30"/>
</svg>

<svg xmlns="http://www.w3.org/2000/svg" width="16" height="16" fill="none" xmlns:v="https://vecta.io/nano"><path d="M13.631 13.635h-2.369V9.922c0-.885-.018-2.025-1.235-2.025-1.235 0-1.424.964-1.424 1.96v3.778H6.234V6H8.51v1.04h.03c.319-.6 1.092-1.233 2.247-1.233 2.401 0 2.845 1.58 2.845 3.637v4.19l-.001.001zM3.558 4.955c-.365 0-.714-.145-.972-.403s-.403-.608-.403-.972c0-.272.081-.538.232-.764s.366-.402.618-.506.528-.131.795-.078.512.185.704.377.323.438.376.705.025.544-.079.795-.281.466-.507.617-.492.232-.765.231v-.002zm1.188 8.68H2.37V6h2.376v7.635zM14.816 0H1.182C.528 0 0 .516 0 1.153v13.694C0 15.485.528 16 1.18 16h13.635c.652 0 1.185-.515 1.185-1.153V1.153C16 .516 15.467 0 14.815 0h.002-.001z" fill="#272c30"/></svg>
